X:1
T:Title
%%score ( 1 2 ) ( 3 4 )
L:1/8
Q:1/4=100
M:3/4
K:C
V:1 treble nm="Midi_20"
V:2 treble 
V:3 bass nm="Midi_20"
V:4 bass 
V:1
"^Kingsland (66. 66.)""^William Boyce\n(1710-79)""^Thy kingdom come, O God" G2 | c4 G2 | %2
 (A2 G2) F2 | E4 C2 | (E2 F2) G2 | (A2 B2) c2 | B4 ||[M:3/4] G2 | (A2 B2) c2 | (d3 c) d2 | e4 d2 | %11
 (c2 BA) GF | (E2 F2) D2 | C4 |] %14
V:2
 E2 | E4 E2 | (D2 E2) D2 | C4 C2 | C4 C2 | (C2 F2) E2 | D4 ||[M:3/4] C2 | (C2 F2) G2 | A4 A2 | %10
 (^G2 A2) B2 | E4 D2 | (C2 D2) B,2 | C4 |] %14
V:3
 C2 | G,4 C2 | C4 B,2 | G,4 C2 | C4 C2 | (C2 D2) G,2 | G,4 || %7
[M:3/4]"^1. Thy kingdom come, O God,\nThy rule, O Christ begin;\nBreak with thine iron rod\nthe tyrannies of sin.\n\n2. Where is thy reign of peace,\nand purity and love?\nWhen shall all hatred cease,\nas in the realms above?\n\n3. When comes the promised time\nthat war shall be no more,\noppression, lust, and crime\nshall flee thy face before?\n" C2 | %8
 (C2 D2) E2 | D4 A,2 | %10
 B,4"^4. We pray thee, Lord, arise,\nand come in thy great might;\nrevive our longing eyes,\nwhich languish for thy sight.\n\n5. Men scorn thy sacred Name,\nand wolves devour thy fold;\nby many deeds of shame\nwe learn that love grows cold.\n\n6. O'er heathen lands afar\nthick darkness broodeth yet:\narise, O Morning Star,\narise, and never set!\n" B,2 | %11
 C4 D2 | (G,2 A,2) G,F, | E,4 |] %14
V:4
 C,2 | C,4 C,2 | (F,2 G,2) G,,2 | C,4 C,2 | (C2 A,2) E,2 | (F,E, D,2) C,2 | G,4 ||[M:3/4] E,2 | %8
 (F,2 D,2) C,2 | F,4 F,2 | (E,2 ^F,2) ^G,2 | (A,2 A,,2) B,,2 | (C,2 F,,2) G,,2 | C,4 |] %14

